assets/svgs/misc-grey/MiscGrey108.svg

<svg width="39" height="39" viewBox="0 0 39 39" fill="none" xmlns="http://www.w3.org/2000/svg">
<path fill-rule="evenodd" clip-rule="evenodd" d="M10.01 14.08H22.07C22.9 14.08 23.57 14.75 23.57 15.58C23.57 16.41 22.9 17.08 22.07 17.08H10.01C9.17999 17.08 8.50999 16.41 8.50999 15.58C8.50999 14.75 9.17999 14.08 10.01 14.08ZM15.84 27.76C19.16 27.76 22.16 26.42 24.36 24.27C24.37 24.26 24.37 24.26 24.37 24.26C24.38 24.25 24.38 24.25 24.39 24.24C26.63 22.03 28.02 18.97 28.02 15.58C28.02 8.87002 22.56 3.40002 15.84 3.40002C9.12999 3.40002 3.66999 8.87002 3.66999 15.58C3.66999 22.3 9.12999 27.76 15.84 27.76ZM15.84 0.400024C24.21 0.400024 31.02 7.21002 31.02 15.58C31.02 19.26 29.7 22.64 27.51 25.27L37.86 35.63C38.45 36.21 38.45 37.16 37.86 37.75C37.57 38.04 37.18 38.19 36.8 38.19C36.42 38.19 36.03 38.04 35.74 37.75L25.37 27.38C22.76 29.49 19.45 30.76 15.84 30.76C7.46999 30.76 0.669991 23.95 0.669991 15.58C0.669991 7.21002 7.46999 0.400024 15.84 0.400024Z" fill="#1A1919"/>
</svg>

<svg xmlns="http://www.w3.org/2000/svg" fill="none" viewBox="0 0 39 39"><path fill="#1A1919" fill-rule="evenodd" d="M10.01 14.08h12.06c.83 0 1.5.67 1.5 1.5s-.67 1.5-1.5 1.5H10.01c-.83 0-1.5-.67-1.5-1.5s.67-1.5 1.5-1.5zm5.83 13.68c3.32 0 6.32-1.34 8.52-3.49l.01-.01.02-.02c2.24-2.21 3.63-5.27 3.63-8.66 0-6.71-5.46-12.18-12.18-12.18-6.71 0-12.17 5.47-12.17 12.18 0 6.72 5.46 12.18 12.17 12.18zm0-27.36c8.37 0 15.18 6.81 15.18 15.18a15.1 15.1 0 01-3.51 9.69l10.35 10.36c.59.58.59 1.53 0 2.12-.29.29-.68.44-1.06.44s-.77-.15-1.06-.44L25.37 27.38a15.103 15.103 0 01-9.53 3.38C7.47 30.76.67 23.95.67 15.58.67 7.21 7.47.4 15.84.4z" clip-rule="evenodd"/></svg>
